X:003
T:Anything for John Joe? (reel) 
F:file ID: cre.3/003any_jj
B:CRE3.164	(Rud ar Bith do SheÃÂÃÂÃÂÃÂ¡n Joe?)
R:reel
L:1/8
Q:180
M:C
K:D
F2AF G2BA|F2AF E2DE|F2AF G2BG|1 ABcA d2 dA:|\
[2 ABcA d2d2||
f4 e2d2|faaf e2d2|f2af efed|cABc d4|
f2f2 e2d2|faaf e2d2|fefg a4|ABcA d4|]

%%%

